img/icon-handshake.svg

<svg width="48" height="48" viewBox="0 0 48 48" fill="none" xmlns="http://www.w3.org/2000/svg">
<g clip-path="url(#clip0)">
<path d="M10.8677 26.0868C10.4929 25.9888 10.1095 26.2131 10.0114 26.588L9.00976 30.4157L0.231444 41.3727C-0.0108291 41.675 0.0379996 42.1166 0.340326 42.3589C0.469787 42.4625 0.624692 42.5128 0.778568 42.5128C0.984172 42.5128 1.188 42.4228 1.32653 42.2499L10.1982 31.1763C10.2598 31.0996 10.3045 31.0106 10.3293 30.9153L11.3688 26.943C11.4669 26.5683 11.2426 26.185 10.8677 26.0868Z" fill="url(#paint0_linear)"/>
<path d="M12.2396 24.1694C12.8097 22.9598 13.6758 21.8999 14.7442 21.1041L18.9622 17.9626C19.5256 17.543 20.2225 17.3319 20.9235 17.3705L24.9633 17.5885C25.3961 17.6118 25.7891 17.8274 26.0413 18.1798C26.2936 18.5324 26.3708 18.9738 26.2533 19.3911C26.0951 19.9529 25.6176 20.3558 25.0372 20.4178L21.4815 20.7965C21.1937 20.8272 20.9542 21.0314 20.8786 21.3107L19.5203 26.3257C19.4121 26.7254 19.378 27.137 19.419 27.5485L19.6285 29.6546C19.6646 30.0166 19.9696 30.2869 20.3258 30.2869C20.349 30.2869 20.3725 30.2856 20.3961 30.2833C20.7816 30.2449 21.0631 29.9013 21.0247 29.5158L20.8152 27.4096C20.7912 27.1683 20.8112 26.9269 20.8747 26.6924L22.1075 22.1409L25.1858 21.813C26.34 21.69 27.289 20.8887 27.6039 19.7718C27.8377 18.9421 27.684 18.0642 27.1824 17.3632C26.6808 16.6623 25.8995 16.2337 25.0389 16.1874L20.9991 15.9695C20.0391 15.9183 19.0858 16.1832 18.2916 16.7189L18.3024 16.6923C19.2958 14.2392 21.0095 12.2053 23.2583 10.8102L26.2962 8.92571C26.3645 8.88333 26.4251 8.82955 26.4751 8.76659L32.5487 1.13856C32.79 0.835488 32.74 0.394065 32.4369 0.152728C32.1338 -0.088609 31.6924 -0.0384708 31.4511 0.26451L25.4533 7.79741L22.5187 9.61792C20.0154 11.1709 18.1077 13.4351 17.002 16.1655L16.1278 18.3242L13.9062 19.9788C12.6535 20.9117 11.6384 22.154 10.9704 23.5712C10.8052 23.9217 10.9555 24.3398 11.306 24.5049C11.6565 24.6702 12.0745 24.5199 12.2396 24.1694Z" fill="url(#paint1_linear)"/>
<path d="M47.6594 2.27872C47.3569 2.03636 46.9155 2.08528 46.6732 2.38761L42.7747 7.25364C42.5324 7.55596 42.5812 7.99757 42.8835 8.23985C43.013 8.34349 43.1679 8.39382 43.3218 8.39382C43.5274 8.39382 43.7312 8.30383 43.8697 8.13087L47.7683 3.26484C48.0106 2.96261 47.9618 2.521 47.6594 2.27872Z" fill="url(#paint2_linear)"/>
<path d="M41.889 9.48112C41.5866 9.23875 41.1451 9.28767 40.9028 9.59L37.9269 13.3045C37.7285 13.5523 37.618 13.8638 37.616 14.1812L37.5958 17.3827L36.881 17.3505C35.4111 17.2838 34.1534 18.4297 34.0872 19.9036L34.0784 20.0977C34.0495 20.7394 34.2474 21.3562 34.6376 21.8576C34.503 21.9417 34.3748 22.038 34.2552 22.1474C33.7391 22.619 33.4376 23.2634 33.4063 23.9616L33.3978 24.1499C33.369 24.7899 33.5742 25.3871 33.9369 25.8593C33.2479 26.3035 32.7763 27.0633 32.7366 27.9428L32.7282 28.1306C32.6987 28.7845 32.9095 29.4126 33.3236 29.9136C32.6346 30.3587 32.153 31.1103 32.0938 31.9799C32.0585 32.4979 32.1713 33.0017 32.4146 33.4451C32.3971 33.4937 32.3843 33.5448 32.3778 33.5983L31.9629 37.0406C31.9595 37.0683 31.949 37.0948 31.9327 37.1174L30.0313 39.7538C29.7877 40.0913 29.3224 40.18 28.972 39.9556C28.7952 39.8426 28.6733 39.6673 28.6285 39.4624C28.5933 39.301 28.6098 39.1369 28.6736 38.9881L29.7459 37.3517C29.826 37.2295 29.9535 36.9472 29.9565 36.939C30.0252 36.7611 30.0718 36.5747 30.0925 36.3853L30.7586 30.2718C30.8005 29.8866 30.5223 29.5404 30.1371 29.4984C29.7513 29.4567 29.4056 29.7345 29.3636 30.1198L28.6975 36.2333C28.6918 36.2856 28.6797 36.3369 28.6638 36.387L25.903 40.6561C25.6535 41.0368 25.1698 41.1804 24.7529 40.9982C24.5187 40.8956 24.3412 40.707 24.2531 40.4668C24.1649 40.2267 24.1783 39.968 24.2907 39.7382L25.4325 37.4046C25.4669 37.3344 25.5971 36.863 25.6166 36.6934L26.3808 30.0482C26.4251 29.6634 26.149 29.3154 25.7639 29.271C25.3793 29.2274 25.0312 29.5029 24.9868 29.888L24.2226 36.5331C24.2083 36.6583 24.1613 36.7781 24.0868 36.8797L21.4089 40.5355C21.1403 40.9026 20.6526 41.0162 20.249 40.8056C19.8201 40.5814 19.6401 40.0606 19.8392 39.6195L21.2993 36.3855C21.5184 35.9006 21.6063 35.3642 21.5536 34.8345L21.3205 32.4914C21.2823 32.1058 20.9386 31.8246 20.553 31.8627C20.1674 31.9011 19.886 32.2447 19.9243 32.6302L20.1574 34.9733C20.1858 35.2585 20.1384 35.547 20.0205 35.8081L18.5603 39.0421C18.3912 39.4168 18.3304 39.8142 18.3647 40.1985L17.3504 40.5509C17.1172 40.632 16.9125 40.7767 16.7586 40.969L12.0391 46.8599C11.7968 47.1622 11.8456 47.6038 12.1479 47.8461C12.2774 47.9497 12.4323 48.0001 12.5862 48.0001C12.7918 48.0001 12.9956 47.9101 13.1342 47.7372L17.8368 41.8674L18.9063 41.4958C19.0943 41.7175 19.3271 41.907 19.5994 42.0493C19.9443 42.2294 20.3136 42.3161 20.6777 42.3161C21.3932 42.3161 22.0891 41.9816 22.5409 41.3647L22.9068 40.8651C22.9161 40.8935 22.9253 40.9219 22.9357 40.9502C23.1568 41.5527 23.6024 42.0264 24.1904 42.2836C24.4951 42.4169 24.8138 42.4808 25.1282 42.4807C25.8936 42.4807 26.6327 42.1021 27.0764 41.4251L27.6278 40.5838C27.7858 40.8002 27.9828 40.9888 28.2155 41.1376C28.5797 41.3706 28.9882 41.4826 29.3927 41.4826C30.0738 41.4826 30.7433 41.1652 31.1691 40.5747L31.4863 40.135C31.6296 40.3653 31.8163 40.5739 32.0466 40.7462C32.4508 41.0485 32.9214 41.1952 33.3878 41.1952C34.0422 41.1952 34.6884 40.9063 35.1313 40.3537L36.288 38.9097C36.6562 38.4503 36.8863 37.8982 36.9536 37.3132L37.2533 34.7059C38.169 34.3278 38.8463 33.4537 38.9174 32.4108C38.9639 31.728 38.7543 31.0696 38.3258 30.5423C39.0331 30.1014 39.5197 29.3319 39.5598 28.4383L39.5683 28.25C39.5966 27.6213 39.3994 27.0337 39.0484 26.5655C39.7569 26.1248 40.2446 25.3545 40.285 24.4596L40.2934 24.2717C40.3218 23.639 40.1249 23.0311 39.7371 22.5385C40.4422 22.0844 40.9251 21.3073 40.9655 20.4074L40.9742 20.2138C41.0063 19.4997 40.7585 18.8158 40.2762 18.2881C39.9273 17.9064 39.4859 17.6402 38.9983 17.5096L39.0217 14.182L41.9975 10.4675C42.2402 10.165 42.1913 9.72339 41.889 9.48112ZM38.5753 23.3349C38.7941 23.5744 38.9065 23.8846 38.892 24.2088L38.8836 24.3967C38.8535 25.0654 38.2889 25.5849 37.6161 25.555L35.7922 25.4602C35.2057 25.3521 34.772 24.8252 34.7995 24.2132L34.808 24.0249C34.8226 23.7009 34.9624 23.402 35.2018 23.1833C35.4274 22.9771 35.7159 22.8653 36.0196 22.8653C36.0381 22.8653 37.7338 22.9412 37.7338 22.9412C38.0576 22.9557 38.3565 23.0955 38.5753 23.3349ZM38.1585 28.3749C38.1285 29.0436 37.5613 29.5629 36.891 29.5333L35.2882 29.4612C34.9642 29.4466 34.6654 29.3068 34.4466 29.0674C34.2279 28.828 34.1154 28.5178 34.1299 28.1935L34.1383 28.0057C34.1685 27.3371 34.7361 26.8178 35.4058 26.8473L37.1741 26.9396C37.7607 27.0477 38.1945 27.5746 38.167 28.1867L38.1585 28.3749ZM35.1934 38.0321L34.0366 39.4761C33.754 39.8288 33.2491 39.8932 32.8874 39.6224C32.5295 39.3547 32.4463 38.8556 32.6979 38.4862L33.0818 37.9227C33.0832 37.9207 33.0842 37.9186 33.0855 37.9166C33.2299 37.7091 33.3233 37.468 33.3558 37.2128L33.6699 34.6066C33.9733 34.7425 34.3027 34.822 34.6456 34.8374L35.8202 34.8903L35.5601 37.1529C35.5229 37.475 35.3962 37.7791 35.1934 38.0321ZM37.5179 32.3152C37.4712 33.0006 36.8779 33.5316 36.1885 33.5022L34.7085 33.4356C34.3627 33.42 34.0454 33.2693 33.8148 33.0111C33.5842 32.7529 33.4702 32.4206 33.4937 32.0752C33.5403 31.3899 34.1355 30.8589 34.823 30.8882L36.3031 30.9548C36.6488 30.9704 36.9662 31.1211 37.1968 31.3793C37.4274 31.6375 37.5414 31.9698 37.5179 32.3152ZM39.5728 20.1508L39.5641 20.3445C39.5326 21.0458 38.9385 21.5904 38.235 21.5591L36.6947 21.4898C36.355 21.4745 36.0416 21.3279 35.8121 21.0768C35.5825 20.8257 35.4647 20.5005 35.4799 20.1609L35.4887 19.9668C35.5203 19.2656 36.1148 18.7237 36.8178 18.7522L38.3581 18.8215C38.6978 18.8368 39.0112 18.9834 39.2408 19.2345C39.4702 19.4855 39.5881 19.8109 39.5728 20.1508Z" fill="url(#paint3_linear)"/>
</g>
<defs>
<linearGradient id="paint0_linear" x1="5.73461" y1="26.0638" x2="5.73461" y2="42.5128" gradientUnits="userSpaceOnUse">
<stop stop-color="#C45ED3"/>
<stop offset="1" stop-color="#FBA2B8"/>
</linearGradient>
<linearGradient id="paint1_linear" x1="21.8024" y1="0" x2="21.8024" y2="30.2869" gradientUnits="userSpaceOnUse">
<stop stop-color="#C45ED3"/>
<stop offset="1" stop-color="#FBA2B8"/>
</linearGradient>
<linearGradient id="paint2_linear" x1="45.2715" y1="2.12463" x2="45.2715" y2="8.39382" gradientUnits="userSpaceOnUse">
<stop stop-color="#C45ED3"/>
<stop offset="1" stop-color="#FBA2B8"/>
</linearGradient>
<linearGradient id="paint3_linear" x1="27.0184" y1="9.32703" x2="27.0184" y2="48.0001" gradientUnits="userSpaceOnUse">
<stop stop-color="#C45ED3"/>
<stop offset="1" stop-color="#FBA2B8"/>
</linearGradient>
<clipPath id="clip0">
<rect width="48" height="48" fill="white"/>
</clipPath>
</defs>
</svg>

<svg xmlns="http://www.w3.org/2000/svg" width="48" height="48" fill="none"  ><g clip-path="url(#E)"><path d="M10.868 26.087a.7.7 0 0 0-.856.501L9.01 30.416.231 41.373a.7.7 0 0 0 .109.986.7.7 0 0 0 .438.154.7.7 0 0 0 .548-.263l8.872-11.074c.062-.077.106-.166.131-.261l1.04-3.972a.7.7 0 0 0-.501-.856z" fill="url(#A)"/><path d="M12.24 24.169c.57-1.21 1.436-2.27 2.505-3.065l4.218-3.142c.563-.42 1.26-.631 1.961-.592l4.04.218c.433.023.826.239 1.078.591s.329.794.212 1.211c-.158.562-.636.965-1.216 1.027l-3.556.379a.7.7 0 0 0-.603.514l-1.358 5.015a3.38 3.38 0 0 0-.101 1.223l.209 2.106a.7.7 0 0 0 .697.632c.023 0 .047-.001.07-.004a.7.7 0 0 0 .629-.768l-.209-2.106c-.024-.241-.004-.483.059-.717l1.233-4.552 3.078-.328a2.81 2.81 0 0 0 1.997-4.45 2.81 2.81 0 0 0-2.143-1.176l-4.04-.218a4.43 4.43 0 0 0-2.707.749l.011-.027a12.32 12.32 0 0 1 4.956-5.882l3.038-1.884a.7.7 0 0 0 .179-.159l6.074-7.628a.7.7 0 0 0-1.098-.874l-5.998 7.533-2.935 1.821c-2.503 1.553-4.411 3.817-5.517 6.548l-.874 2.159-2.222 1.655c-1.253.933-2.268 2.175-2.936 3.592a.7.7 0 1 0 1.269.598z" fill="url(#B)"/><path d="M47.659 2.279a.7.7 0 0 0-.986.109l-3.898 4.866a.7.7 0 0 0 .547 1.14.7.7 0 0 0 .548-.263l3.899-4.866a.7.7 0 0 0-.109-.986z" fill="url(#C)"/><path d="M41.889 9.481a.7.7 0 0 0-.986.109l-2.976 3.715c-.198.248-.309.559-.311.877l-.02 3.201-.715-.032c-1.47-.067-2.728 1.079-2.794 2.553l-.009.194c-.029.642.169 1.259.559 1.76a2.63 2.63 0 0 0-.382.29 2.6 2.6 0 0 0-.849 1.814l-.009.188c-.029.64.176 1.237.539 1.709-.689.444-1.161 1.204-1.2 2.083l-.008.188a2.6 2.6 0 0 0 .595 1.783c-.689.445-1.171 1.197-1.23 2.066-.035.518.078 1.022.321 1.465a.7.7 0 0 0-.037.153l-.415 3.442c-.003.028-.014.054-.03.077l-1.901 2.636c-.244.337-.709.426-1.059.202a.78.78 0 0 1-.344-.493c-.035-.161-.019-.326.045-.474l1.072-1.636a4.04 4.04 0 0 0 .211-.413c.069-.178.115-.364.136-.554l.666-6.114a.7.7 0 1 0-1.395-.152l-.666 6.113c-.006.052-.018.104-.034.154l-2.761 4.269c-.249.381-.733.524-1.15.342a.92.92 0 0 1-.462-1.26l1.142-2.334a4.54 4.54 0 0 0 .184-.711l.764-6.645a.7.7 0 0 0-.617-.777c-.385-.044-.733.232-.777.617l-.764 6.645c-.014.125-.061.245-.136.347l-2.678 3.656a.91.91 0 0 1-1.16.27c-.429-.224-.609-.745-.41-1.186l1.46-3.234a3.04 3.04 0 0 0 .254-1.551l-.233-2.343a.7.7 0 1 0-1.396.139l.233 2.343c.028.285-.019.574-.137.835l-1.46 3.234c-.169.375-.23.772-.196 1.156l-1.014.352c-.233.081-.438.226-.592.418l-4.72 5.891a.7.7 0 0 0 .547 1.14.7.7 0 0 0 .548-.263l4.703-5.87 1.07-.372a2.31 2.31 0 0 0 .693.553c.345.18.714.267 1.078.267.715 0 1.411-.334 1.863-.951l.366-.5.029.085a2.31 2.31 0 0 0 1.255 1.333c.305.133.623.197.938.197.765 0 1.505-.379 1.948-1.056l.551-.841c.158.216.355.405.588.554a2.18 2.18 0 0 0 1.177.345c.681 0 1.351-.317 1.776-.908l.317-.44c.143.23.33.439.56.611.404.302.875.449 1.341.449a2.23 2.23 0 0 0 1.744-.841l1.157-1.444a3.12 3.12 0 0 0 .666-1.596l.3-2.607c.916-.378 1.593-1.252 1.664-2.295.047-.683-.163-1.341-.592-1.869.707-.441 1.194-1.21 1.234-2.104l.008-.188c.028-.629-.169-1.216-.52-1.684.709-.441 1.196-1.211 1.237-2.106l.008-.188c.028-.633-.169-1.241-.556-1.733.705-.454 1.188-1.231 1.228-2.131l.009-.194a2.66 2.66 0 0 0-1.976-2.704l.023-3.328 2.976-3.715a.7.7 0 0 0-.108-.986zm-3.314 13.854c.219.239.331.55.317.874l-.008.188c-.03.669-.595 1.188-1.267 1.158l-1.824-.095c-.587-.108-1.02-.635-.993-1.247l.008-.188c.015-.324.154-.623.394-.842.226-.206.514-.318.818-.318l1.714.076c.324.015.623.154.841.394zm-.417 5.04c-.03.669-.597 1.188-1.267 1.158l-1.603-.072c-.324-.015-.623-.154-.842-.394s-.331-.55-.317-.874l.008-.188c.03-.669.598-1.188 1.267-1.158l1.768.092c.587.108 1.02.635.993 1.247l-.009.188zm-2.965 9.657l-1.157 1.444a.83.83 0 0 1-1.149.146.83.83 0 0 1-.19-1.136l.384-.563c.148-.214.242-.455.274-.71l.314-2.606c.303.136.633.215.976.231l1.175.053-.26 2.263a1.72 1.72 0 0 1-.367.879zm2.325-5.717c-.047.685-.64 1.216-1.329 1.187l-1.48-.067c-.346-.016-.663-.166-.894-.425s-.345-.59-.321-.936c.047-.685.642-1.216 1.329-1.187l1.48.067c.346.016.663.166.894.425s.345.59.321.936zm2.055-12.164l-.009.194c-.032.701-.626 1.246-1.329 1.215l-1.54-.069c-.34-.015-.653-.162-.883-.413s-.347-.576-.332-.916l.009-.194c.032-.701.626-1.243 1.329-1.215l1.54.069c.34.015.653.162.883.413s.347.576.332.916z" fill="url(#D)"/></g><defs><linearGradient id="A" x1="5.735" y1="26.064" x2="5.735" y2="42.513" gradientUnits="userSpaceOnUse"><stop stop-color="#c45ed3"/><stop offset="1" stop-color="#fba2b8"/></linearGradient><linearGradient id="B" x1="21.802" y1="0" x2="21.802" y2="30.287" gradientUnits="userSpaceOnUse"><stop stop-color="#c45ed3"/><stop offset="1" stop-color="#fba2b8"/></linearGradient><linearGradient id="C" x1="45.272" y1="2.125" x2="45.272" y2="8.394" gradientUnits="userSpaceOnUse"><stop stop-color="#c45ed3"/><stop offset="1" stop-color="#fba2b8"/></linearGradient><linearGradient id="D" x1="27.018" y1="9.327" x2="27.018" y2="48" gradientUnits="userSpaceOnUse"><stop stop-color="#c45ed3"/><stop offset="1" stop-color="#fba2b8"/></linearGradient><clipPath id="E"><path fill="#fff" d="M0 0h48v48H0z"/></clipPath></defs></svg>
